X:18858
T:Winter's Tale,The. HSJJ.135
M:4/4
L:1/8
Q:200
S:HSJ Jackson,Wyresdale,Lancs.1823
R:Reel
O:England
A:Lancashire
N:Illegible dance instructions.
H:1823
Z:Chris Partington.
K:Bb
f-dBd f-dBd|gabgf2d2|egce dfBd|BccBA2F2|!
f-dBd f-dBd|gabgf2d2|egge dffd|ecBAB2B2:|!
|cAFA cdec|dBfdb2f2|efge defd|GccBA2F2|!
cAFA cdec|dBfdb2f2|=efga bgc'b|gbg=e"DC"f2f2|]


